X:1
T:Title
%%score 1 ( 2 3 ) ( 4 5 )
L:1/8
Q:1/4=92
M:6/8
K:G
V:1 treble nm="French Horn, Soprano"
V:2 treble nm="Grand Piano, Staff-1"
V:3 treble 
V:4 bass nm="Choir Pad, Rize, 77.77.77"
V:5 bass 
V:1
 BAG A2 D | BAG A3 | BAG dAF | AEA A3 | BAG A2 D | BAG A3 | B2 B d^cB | ^cdc B3 | ABA d2 G | %9
 A2 e d3 | d2 B G2 E | D2 A G3- | G6 |] %13
V:2
 BA[B,DG] [CDA]2 [CD] | BA[B,DG] [CDA]3 | BA[B,DG] dA[DF] | AE[^CA] A2- [=CA] | %4
w: By~A~A.~Wild~(?–1903) * * * *||||
 BA[B,DG] [CDA]2 [CD] | BA[B,DG] [CDA]3 | [DB]2 [DB] d^c[DB] | ^cd[Ec] [DB]3 | AB[FA] [Gd]2 G | %9
w: |||||
 [FA]2 [Fe] [Gd]3 | d2 B G2 [CE] | [CD]2 [CA] [B,G]3- | [B,G]6 |] %13
w: ||||
V:3
 .[B,D]3 z3 | .[B,D]3 z3 | .[B,D]3 .D3 | .^C3 .D3 | .[B,D]3 z3 | .[B,D]3 z3 | z3 .D3 | .E3 z3 | %8
 .F3 z3 | x6 | x6 | x6 | x6 |] %13
V:4
 [G,,G,]2 [G,,G,] [G,,F,]2 [G,,F,] | [G,,G,]2 [G,,G,] [G,,F,]3 | %2
 [G,,G,]2 [G,,G,] [G,,F,]2 [A,,A,] | [A,,E,]2 [A,,G,] [D,F,]3 | [G,,G,]2 [G,,G,] [G,,F,]2 [G,,F,] | %5
 [G,,G,]2 [G,,G,] [G,,F,]3 | [G,,G,]2 G, [F,B,]2 [F,B,] | [F,_B,]2 [F,B,] [B,,=B,]3 | %8
 [CD]2 [CD] [B,D]2 [B,D] | [CD]2 [CD] [B,D]3 | D2[K:bass] B, G,2 [C,G,] | G,F,[D,F,] [G,,G,]3- | %12
 [G,,G,]6 |] %13
V:5
 x6 | x6 | x6 | x6 | x6 | x6 | x6 | x6 | x6 | x6 | x2[K:bass] x4 | .D,3 z3 | x6 |] %13

